layout/bottom-panel/widgets/wifi/icons/wifi.dark.svg

<svg enable-background="new 0 0 24.00 24.00" height="240" viewBox="0 0 24 24" width="240" xmlns="http://www.w3.org/2000/svg"><path d="m12 21 3.6002-4.8003c-1.0028-.7533-2.2494-1.1997-3.6002-1.1997s-2.59738.4464-3.60021 1.1997zm0-18c-4.05247 0-7.79215 1.33919-10.80063 3.59916l1.8001 2.40014c2.50707-1.8833 5.62347-2.99929 9.00053-2.99929 3.377 0 6.4934 1.11599 9.0005 2.9993l1.8001-2.40015c-3.0085-2.25997-6.7481-3.59916-10.8006-3.59916zm0 6c-2.70164 0-5.19476.8928-7.20042 2.3994l1.8001 2.4002c1.50425-1.13 3.37408-1.7996 5.40032-1.7996 2.0262 0 3.8961.6696 5.4003 1.7996l1.8001-2.4002c-2.0056-1.5066-4.4988-2.3994-7.2004-2.3994z" stroke-linejoin="round" stroke-width=".2"/></svg>

﻿<?xml version="1.0" encoding="utf-8"?>
<!DOCTYPE svg PUBLIC "-//W3C//DTD SVG 1.1//EN" "http://www.w3.org/Graphics/SVG/1.1/DTD/svg11.dtd">
<svg xmlns="http://www.w3.org/2000/svg" xmlns:xlink="http://www.w3.org/1999/xlink" version="1.1" baseProfile="full" width="240" height="240" viewBox="0 0 24.00 24.00" enable-background="new 0 0 24.00 24.00" xml:space="preserve">
	<path fill="#000000" fill-opacity="1" stroke-width="0.2" stroke-linejoin="round" d="M 12,21L 15.6002,16.1997C 14.5974,15.4464 13.3508,15 12,15C 10.6492,15 9.40262,15.4464 8.39979,16.1997L 12,21 Z M 12,3C 7.94753,3 4.20785,4.33919 1.19937,6.59916L 2.99947,8.9993C 5.50654,7.116 8.62294,6.00001 12,6.00001C 15.377,6.00001 18.4934,7.116 21.0005,8.99931L 22.8006,6.59916C 19.7921,4.33919 16.0525,3 12,3 Z M 12,9C 9.29836,9 6.80524,9.8928 4.79958,11.3994L 6.59968,13.7996C 8.10393,12.6696 9.97376,12 12,12C 14.0262,12 15.8961,12.6696 17.4003,13.7996L 19.2004,11.3994C 17.1948,9.8928 14.7016,9 12,9 Z "/>
</svg>
